X:1
T:No Hope in Jesus
T:Robert Lowry
T:No Hope in Jesus
T:Public Domain
T:Public Domain
C:Robert Lowry
Z:Public Domain
%%score ( 1 2 ) ( 3 4 )
L:1/8
M:4/4
K:F
V:1 treble 
V:2 treble 
V:3 bass 
V:4 bass 
V:1
 F3 [FG] [FA]2 [Fc]2 | [Fd]3 [Fd] [Fc]2 [FA]2 | [CF]4 [FA]2 [Fc]2 | [EG]2 [EA]2 F4 | %4
w: 1.~Oh, to have no|no Sav- ior! No|Rock, no Ref-|uge nigh! When|
w: 2.~Oh, to have no|no Sav- ior! How|lone- ly life|must be! Like|
w: 3.~Oh, to have no|no Sav- ior! No|hand to clasp|thine own! Thro’|
w: 4.~Now, we pray thee,|to Je- sus; His|pard- ’ning love|re- ceive; For|
 F3 [FG] [FA]2 [Fc]2 | [Fd]3 [Fd] [Fc]2 [FA]2 | [Ec]3 [Ec] [FA]2 [EG]2 | [FA]2 [F=B]2 [Ec]4 || %8
w: dark days ’round thee|ther, When the storms|sweep o’er the sky!|Oh, to have|
w: sail- or, lost and|en, On a wide|and shore- less sea.|Oh, to have|
w: dark, dark vale of|dows, Thou must press|thy way a- lone.|Oh, to have|
w: Sav- ior now is|ing, And He bids|thee turn and live.|Come to Je-|
"^Refrain" [Fc]3 [Fc] [Fc]2 [Fc]2 | [FA]3 [EG] [EG]2 F2 | [Fc]4 [Fc]2 [Fc]2 | [FA]3 [EG] [EG]2 F2 | %12
w: no hope in Je-|sus! No Friend, no|in Je- sus!|Oh, to have no|
w: no hope in Je-|sus! No Friend, no|in Je- sus!|Oh, to have no|
w: no hope in Je-|sus! No Friend, no|in Je- sus!|Oh, to have no|
w: sus, He will save|you; He is the|of sin- ners;|Then, when thou hast|
 F3 [FG] [FA]2 [Fc]2 | [Fd]3 [Fd] [Fc]2 [FA]2 | [Fc]4 [FA]2 F2 | [FA]2 [EG]2 F4 |] %16
w: in Je- sus! How|this world must be!|||
w: in Je- sus! How|this world must be!|||
w: in Je- sus! How|this world must be!|||
w: the Sav- ior, How|this world will be!|||
V:2
 F3 x5 | x8 | x8 | x4 F4 | F3 x5 | x8 | x8 | x8 || x8 | x6 F2 | x8 | x6 F2 | F3 x5 | x8 | x6 F2 | %15
w: Christ,|||the|ga-|||||Light||hope|dark|||
w: Christ,|||a|driv-|||||Light||hope|dark|||
w: Christ,|||the|sha-|||||Light||hope|dark|||
w: come|||the|call-|||||Friend||found|bright|||
 x4 F4 |] %16
w: |
w: |
w: |
w: |
V:3
 [F,A,]3 [F,B,] [F,C]2 [F,A,]2 | [F,B,]3 [F,B,] [F,A,]2 [F,C]2 | [F,A,]4 [F,C]2 [A,,C]2 | %3
 [C,B,]2 [C,C]2 [F,A,]4 | [F,A,]3 [F,B,] [F,C]2 [F,A,]2 | [F,B,]3 [F,B,] [F,A,]2 [F,C]2 | %6
 [C,C]3 [C,C] [C,C]2 [C,C]2 | [F,C]2 G,2 [C,G,]4 || [F,A,]3 [F,A,] [F,A,]2 [F,A,]2 | %9
 [C,C]3 [C,B,] [C,B,]2 [F,A,]2 | [F,A,]4 [F,A,]2 [F,A,]2 | [C,C]3 [C,B,] [C,B,]2 [F,A,]2 | %12
 [F,A,]3 [F,B,] [F,C]2 [F,A,]2 | [F,B,]3 [F,B,] [F,A,]2 [F,C]2 | [F,A,]4 [F,C]2 [F,A,]2 | %15
 [C,C]2 [C,B,]2 [F,A,]4 |] %16
V:4
 x8 | x8 | x8 | x8 | x8 | x8 | x8 | x2 G,2 x4 || x8 | x8 | x8 | x8 | x8 | x8 | x8 | x8 |] %16

